X:153
M:4/4
L:1/4
K:F
A | B A G d | d B !fermata!A c | B A G c | (B A) !fermata!G G | B A G d | d B !fermata!A c | B A G c | (B A) !fermata!G G | A F E D | F G !fermata!A F | G B A B | G ^F !fermata!G !sintro!G | d B c d | (c B) !fermata!A !eintro!|]
